!!!COM: Schubert, Franz
!!!CDT: 1797/01/31-1828/11/19
!!!SCT: D. 365
!!!OPR: 36 Originaltänze
!!!OPS: 9
!!!ONM: 24
**kern	**kern	**dynam
*part1	*part1	*part1
*staff2	*staff1	*
*I"Klavier	*	*
*I'Klav.	*	*
*clefF4	*clefG2	*
*k[f#c#g#d#a#]	*k[f#c#g#d#a#]	*
*M3/4	*M3/4	*
=1	=1	=1
*B:	*B:	*
4BB	8d#L	p
.	8dd#J	.
4F# 4B	8bL	.
.	8d#J	.
4BB	8bL	.
.	8d#J	.
=	=	=
4FF#	8e^L	.
.	8ff#J	.
4F# 4A#	8cc#L	.
.	8eJ	.
4FF#	4cc#	.
=	=	=
4FF#	8eL	f
.	8ff#J	.
4F# 4A#	8cc#L	.
.	8eJ	.
4FF#	8cc#L	.
.	8eJ	.
=	=	=
4BB	8d#^L	.
.	8dd#J	.
4F# 4B	8bL	.
.	8d#J	.
4BB	4b	.
=	=	=
4BB	8d#L	p
.	8dd#J	.
4F# 4B	8bL	.
.	8d#J	.
4BB	8bL	.
.	8d#J	.
!!linebreak:original
=	=	=
4FF#	8e^L	.
.	8ff#J	.
4F# 4A#	8cc#L	.
.	8eJ	.
4FF#	4cc#	.
=	=	=
4FF#	8eL	f
.	8ff#J	.
4F# 4A#	8cc#L	.
.	8eJ	.
4FF#	8cc#L	.
.	8ff#J	.
=	=	=
4BB	2d# 2b	.
4F# 4B	.	.
4BB	4r	.
=:|!|:	=:|!|:	=:|!|:
*g#:	*g#:	*
4GG#	8d#L	p
.	8dd#J	.
4D# 4G#	8bL	.
.	8d#J	.
4GG#	8bL	.
.	8d#J	.
=	=	=
4DD#	8d#L	.
.	8dd#J	.
4D# 4F##X	8a#L	.
.	8d#J	.
4DD#	4a#	.
=	=	=
*B:	*B:	*
!	!LO:TX:b:i:t=cresc.	!
4BB	8f#L	.
.	8ff#J	.
4F# 4B	8dd#L	.
.	8f#J	.
4BB	8dd#L	.
.	8f#J	.
!!linebreak:original
=	=	=
4FF#	8f#L	.
.	8ff#J	.
4F# 4A#	8cc#L	.
.	8f#J	.
4FF#	4cc#	.
=	=	=
4E	8bL	f
.	8bbJ	.
4B 4e	8gg#L	.
.	8bJ	.
4E	8gg#L	.
.	8bJ	.
=	=	=
4BB	8bL	.
.	8bbJ	.
4B 4d#	8ff#L	.
.	8bJ	.
4BB	4ff#	.
=	=	=
4F#	8f#L	.
.	8ff#J	.
4A# 4e	8cc#L	.
.	8f#J	.
4F#	8cc#L	.
.	8f#J	.
=	=	=
4BB	8d#L	.
.	8dd#J	.
4F# 4B	8bL	.
.	8d#J	.
4BB	4b	.
=:|!	=:|!	=:|!
*-	*-	*-
!!!system-decoration: {(s1,s2)}
!!!AGN: Walzer
!!!EED: Wolfgang Drescher
!!!END: 2025/12/03
!!!ENC: Florian Moldaschl
!!!EEV: 2025/12/03
!!!title: @{OPR}, @{SCT} №@{ONM}